images/twitter-social.svg

<svg width="60" height="60" xmlns="http://www.w3.org/2000/svg"><path d="M34.167 18.283c-2.619.953-4.274 3.411-4.086 6.101l.063 1.038-1.048-.127c-3.813-.487-7.145-2.139-9.974-4.915l-1.383-1.377-.356 1.017c-.754 2.267-.272 4.661 1.299 6.271.838.89.649 1.017-.796.487-.503-.169-.943-.296-.985-.233-.146.149.356 2.076.754 2.839.545 1.06 1.655 2.097 2.871 2.712l1.027.487-1.215.021c-1.173 0-1.215.021-1.089.467.419 1.377 2.074 2.839 3.918 3.475l1.299.444-1.131.678a11.751 11.751 0 0 1-5.616 1.567c-.944.021-1.719.106-1.719.17 0 .211 2.557 1.397 4.044 1.864 4.463 1.377 9.765.783 13.746-1.568 2.829-1.674 5.657-5 6.978-8.221.713-1.715 1.425-4.851 1.425-6.354 0-.975.063-1.102 1.236-2.267.692-.678 1.341-1.419 1.467-1.631.21-.403.188-.403-.88-.043-1.781.636-2.033.551-1.152-.402.649-.678 1.425-1.907 1.425-2.267 0-.063-.314.042-.671.233-.377.212-1.215.53-1.844.72l-1.131.361-1.027-.7c-.566-.381-1.361-.805-1.781-.932-1.069-.296-2.704-.254-3.668.085zM0 0h60v60H0V0z" fill="#010101" fill-rule="evenodd"/></svg>

<?xml version="1.0" encoding="UTF-8"?>
<svg width="60px" height="60px" viewBox="0 0 60 60" version="1.1" xmlns="http://www.w3.org/2000/svg" xmlns:xlink="http://www.w3.org/1999/xlink">
    <!-- Generator: Sketch 46.2 (44496) - http://www.bohemiancoding.com/sketch -->
    <title>twitter-social</title>
    <desc>Created with Sketch.</desc>
    <defs></defs>
    <g id="Page-1" stroke="none" stroke-width="1" fill="none" fill-rule="evenodd">
        <g id="twitter-social" fill="#010101">
            <path d="M34.167,18.283 C31.548,19.236 29.893,21.694 30.081,24.384 L30.144,25.422 L29.096,25.295 C25.283,24.808 21.951,23.156 19.122,20.38 L17.739,19.003 L17.383,20.02 C16.629,22.287 17.111,24.681 18.682,26.291 C19.52,27.181 19.331,27.308 17.886,26.778 C17.383,26.609 16.943,26.482 16.901,26.545 C16.755,26.694 17.257,28.621 17.655,29.384 C18.2,30.444 19.31,31.481 20.526,32.096 L21.553,32.583 L20.338,32.604 C19.165,32.604 19.123,32.625 19.249,33.071 C19.668,34.448 21.323,35.91 23.167,36.546 L24.466,36.99 L23.335,37.668 C21.659,38.644 19.689,39.194 17.719,39.235 C16.775,39.256 16,39.341 16,39.405 C16,39.616 18.557,40.802 20.044,41.269 C24.507,42.646 29.809,42.052 33.79,39.701 C36.619,38.027 39.447,34.701 40.768,31.48 C41.481,29.765 42.193,26.629 42.193,25.126 C42.193,24.151 42.256,24.024 43.429,22.859 C44.121,22.181 44.77,21.44 44.896,21.228 C45.106,20.825 45.084,20.825 44.016,21.185 C42.235,21.821 41.983,21.736 42.864,20.783 C43.513,20.105 44.289,18.876 44.289,18.516 C44.289,18.453 43.975,18.558 43.618,18.749 C43.241,18.961 42.403,19.279 41.774,19.469 L40.643,19.83 L39.616,19.13 C39.05,18.749 38.255,18.325 37.835,18.198 C36.766,17.902 35.131,17.944 34.167,18.283 Z M0,0 L60,0 L60,60 L0,60 L0,0 Z" id="Shape"></path>
        </g>
    </g>
</svg>
